X:240
T: Kiss the Bride in Bed
S: "Ceol Rince na hEireann" 1/150
Z: B.Black
L: 1/8
M: 4/4
R: reel
K: D
dB|AF F2 AFdB|AF F2 GE E2|AF F2 AFDF|EDEF D2 dB|
AF F2 AFdB|AF F2 GE E2|AF F2 AFDF|EDEF D2 :|
AB|defg afdf|edfd eB B2|defg afdf|edef d2 AB|
defg afdf|edfd eB B2|defg a2 ag|fgef d2 :|
